packages/icons/general/File.svg

<svg width="42" height="48" viewBox="0 0 42 48" xmlns="http://www.w3.org/2000/svg">
<g>
        <path
            opacity="0.5"
            d="M8.08752 12.9375C8.08752 9.62379 10.4 6.9375 13.2525 6.9375H28.7473C31.5998 6.9375 33.9123 9.62379 33.9123 12.9375V36.9375C33.9123 40.2512 31.5998 42.9375 28.7473 42.9375H13.2525C10.4 42.9375 8.08752 40.2512 8.08752 36.9375V12.9375Z"
            fill="#AFC3E1"
        />
        <path
            opacity="0.1"
            d="M33.9122 20.3906V12.9375C33.9122 9.62379 31.5998 6.9375 28.7473 6.9375H22.3314L33.9122 20.3906Z"
            fill="#AFC3E1"
        />
        <path
            d="M22.3314 6.9375L22.3314 14.3906C22.3314 17.7043 24.6439 20.3906 27.4964 20.3906L33.9122 20.3906L22.3314 6.9375Z"
            fill="#AFC3E1"
        />
        <path
            fill-rule="evenodd"
            clip-rule="evenodd"
            d="M22.7565 22.8277C22.2814 22.2145 21.649 21.8834 21.0023 21.8834C20.3556 21.8834 19.7233 22.2145 19.2482 22.8277C18.7715 23.443 18.4959 24.2895 18.4959 25.1833V27.7068H23.5088V25.1833C23.5088 24.2895 23.2332 23.443 22.7565 22.8277ZM24.5113 27.7068V25.1833C24.5113 24.0179 24.1531 22.8894 23.5017 22.0486C22.8487 21.2057 21.951 20.7188 21.0023 20.7188C20.0536 20.7188 19.1559 21.2057 18.503 22.0486C17.8515 22.8894 17.4933 24.0179 17.4933 25.1833V27.7068H17.1007C16.2174 27.7068 15.4855 28.5263 15.4855 29.5597V34.0066C15.4855 35.0399 16.2174 35.8594 17.1007 35.8594H24.8985C25.7819 35.8594 26.5138 35.0399 26.5138 34.0066V29.5597C26.5138 28.5263 25.7819 27.7068 24.8985 27.7068H24.5113ZM25.5112 29.5597C25.5112 29.1896 25.2456 28.8715 24.8985 28.8715H17.1007C16.7536 28.8715 16.488 29.1896 16.488 29.5597V34.0066C16.488 34.3766 16.7536 34.6948 17.1007 34.6948H24.8985C25.2456 34.6948 25.5112 34.3766 25.5112 34.0066V29.5597Z"
            fill="white"
        />
    </g>
</svg>

<svg xmlns="http://www.w3.org/2000/svg" width="42" height="48">
    <path fill="#AFC3E1" d="M8.088 12.938c0-3.314 2.312-6 5.165-6h15.494c2.853 0 5.165 2.686 5.165 6v24c0 3.313-2.312 6-5.165 6H13.252c-2.852 0-5.164-2.687-5.164-6v-24Z" opacity=".5"/>
    <path fill="#AFC3E1" d="M33.912 20.39v-7.453c0-3.313-2.312-6-5.165-6h-6.416l11.581 13.454Z" opacity=".1"/>
    <path fill="#AFC3E1" d="M22.331 6.938v7.453c0 3.313 2.313 6 5.165 6h6.416L22.332 6.938Z"/>
    <path fill="#fff" fill-rule="evenodd" d="M22.756 22.828c-.475-.613-1.107-.945-1.754-.945-.646 0-1.279.332-1.754.945-.477.615-.752 1.462-.752 2.355v2.524h5.013v-2.524c0-.893-.276-1.74-.753-2.355Zm1.755 4.879v-2.524c0-1.165-.358-2.294-1.01-3.134-.652-.843-1.55-1.33-2.499-1.33-.948 0-1.846.487-2.499 1.33-.651.84-1.01 1.969-1.01 3.134v2.524h-.392c-.884 0-1.615.82-1.615 1.853v4.447c0 1.033.731 1.852 1.615 1.852h7.797c.884 0 1.616-.82 1.616-1.852V29.56c0-1.034-.732-1.853-1.616-1.853h-.387Zm1 1.853c0-.37-.265-.688-.613-.688h-7.797c-.347 0-.613.318-.613.688v4.447c0 .37.266.688.613.688h7.797c.348 0 .613-.318.613-.688V29.56Z" clip-rule="evenodd"/>
</svg>
